resources/dark/github.svg

<svg fill="none" height="16" viewBox="0 0 16 16" width="16" xmlns="http://www.w3.org/2000/svg" xmlns:xlink="http://www.w3.org/1999/xlink"><linearGradient id="a" gradientUnits="userSpaceOnUse" x1="8" x2="8" y1="2" y2="14"><stop offset="0" stop-color="#4484f7"/><stop offset="1" stop-color="#bc5cf7"/></linearGradient><path d="m6.01371 11.6624c0 .0496-.05565.0893-.12581.0893-.07984.0075-.13548-.0322-.13548-.0893 0-.0496.05564-.0893.12581-.0893.07258-.0075.13548.0322.13548.0893zm-.75242-.1117c-.01694.0496.03145.1067.10403.1216.06291.0248.13549 0 .15-.0496.01452-.0496-.03145-.1067-.10403-.129-.0629-.0174-.13306.0074-.15.057zm1.06936-.0422c-.07017.0174-.11855.0646-.1113.1216.00726.0497.07017.0819.14275.0645.07016-.0173.11854-.0645.11129-.1141-.00726-.0471-.07258-.0794-.14274-.072zm1.59193-9.5085c-3.35564 0-5.92258 2.61286-5.92258 6.0545 0 2.7518 1.68871 5.1066 4.10081 5.9354.30967.0571.41854-.139.41854-.3003 0-.1538-.00725-1.0024-.00725-1.5235 0 0-1.69355.3722-2.0492-.7394 0 0-.2758-.7221-.67258-.9082 0 0-.55403-.3896.03871-.3821 0 0 .60242.0496.93387.6401.52984.9578 1.41774.6824 1.76371.5186.05565-.397.21291-.6724.3871-.8362-1.35242-.1538-2.71694-.3548-2.71694-2.74187 0-.68237.18388-1.02479.57097-1.46151-.0629-.16129-.26855-.82629.06291-1.68484.50564-.16129 1.66935.66997 1.66935.66997.48387-.13896 1.00403-.21092 1.51935-.21092.51533 0 1.03549.07196 1.51936.21092 0 0 1.16369-.83374 1.66939-.66997.3314.86103.1258 1.52355.0629 1.68484.3871.4392.6242.78162.6242 1.46151 0 2.39447-1.425 2.58557-2.77746 2.74187.22258.1961.41129.5683.41129 1.1514 0 .8362-.00726 1.8709-.00726 2.0744 0 .1613.11129.3573.41855.3002 2.41938-.8238 4.05968-3.1786 4.05968-5.9304 0-3.44164-2.7218-6.0545-6.07742-6.0545zm-3.57097 8.5582c-.03145.0248-.02419.0819.01694.129.03871.0397.09435.0571.1258.0248.03146-.0248.0242-.0819-.01693-.129-.03871-.0397-.09436-.0571-.12581-.0248zm-.26129-.201c-.01693.0322.00726.072.05565.0968.03871.0248.08709.0173.10403-.0174.01694-.0323-.00726-.072-.05565-.0968-.04838-.0149-.08709-.0074-.10403.0174zm.78387.8834c-.03871.0322-.02419.1067.03146.1538.05564.0571.1258.0645.15725.0248.03145-.0322.01694-.1067-.03145-.1538-.05322-.0571-.1258-.0645-.15726-.0248zm-.2758-.3648c-.03871.0248-.03871.0893 0 .1464s.10403.0819.13548.0571c.03871-.0323.03871-.0968 0-.1539-.03387-.057-.09677-.0819-.13548-.0496z" fill="url(#a)"/></svg>

<svg width="16" height="16" viewBox="0 0 16 16" fill="none" xmlns="http://www.w3.org/2000/svg">
<path d="M6.01371 11.6624C6.01371 11.712 5.95806 11.7517 5.8879 11.7517C5.80806 11.7592 5.75242 11.7195 5.75242 11.6624C5.75242 11.6128 5.80806 11.5731 5.87823 11.5731C5.95081 11.5656 6.01371 11.6053 6.01371 11.6624ZM5.26129 11.5507C5.24435 11.6003 5.29274 11.6574 5.36532 11.6723C5.42823 11.6971 5.50081 11.6723 5.51532 11.6227C5.52984 11.5731 5.48387 11.516 5.41129 11.4937C5.34839 11.4763 5.27823 11.5011 5.26129 11.5507ZM6.33065 11.5085C6.26048 11.5259 6.2121 11.5731 6.21935 11.6301C6.22661 11.6798 6.28952 11.712 6.3621 11.6946C6.43226 11.6773 6.48064 11.6301 6.47339 11.5805C6.46613 11.5334 6.40081 11.5011 6.33065 11.5085ZM7.92258 2C4.56694 2 2 4.61286 2 8.0545C2 10.8063 3.68871 13.1611 6.10081 13.9899C6.41048 14.047 6.51935 13.8509 6.51935 13.6896C6.51935 13.5358 6.5121 12.6872 6.5121 12.1661C6.5121 12.1661 4.81855 12.5383 4.4629 11.4267C4.4629 11.4267 4.1871 10.7046 3.79032 10.5185C3.79032 10.5185 3.23629 10.1289 3.82903 10.1364C3.82903 10.1364 4.43145 10.186 4.7629 10.7765C5.29274 11.7343 6.18064 11.4589 6.52661 11.2951C6.58226 10.8981 6.73952 10.6227 6.91371 10.4589C5.56129 10.3051 4.19677 10.1041 4.19677 7.71703C4.19677 7.03466 4.38065 6.69224 4.76774 6.25552C4.70484 6.09423 4.49919 5.42923 4.83065 4.57068C5.33629 4.40939 6.5 5.24065 6.5 5.24065C6.98387 5.10169 7.50403 5.02973 8.01935 5.02973C8.53468 5.02973 9.05484 5.10169 9.53871 5.24065C9.53871 5.24065 10.7024 4.40691 11.2081 4.57068C11.5395 5.43171 11.3339 6.09423 11.271 6.25552C11.6581 6.69472 11.8952 7.03714 11.8952 7.71703C11.8952 10.1115 10.4702 10.3026 9.11774 10.4589C9.34032 10.655 9.52903 11.0272 9.52903 11.6103C9.52903 12.4465 9.52177 13.4812 9.52177 13.6847C9.52177 13.846 9.63306 14.042 9.94032 13.9849C12.3597 13.1611 14 10.8063 14 8.0545C14 4.61286 11.2782 2 7.92258 2ZM4.35161 10.5582C4.32016 10.583 4.32742 10.6401 4.36855 10.6872C4.40726 10.7269 4.4629 10.7443 4.49435 10.712C4.52581 10.6872 4.51855 10.6301 4.47742 10.583C4.43871 10.5433 4.38306 10.5259 4.35161 10.5582ZM4.09032 10.3572C4.07339 10.3894 4.09758 10.4292 4.14597 10.454C4.18468 10.4788 4.23306 10.4713 4.25 10.4366C4.26694 10.4043 4.24274 10.3646 4.19435 10.3398C4.14597 10.3249 4.10726 10.3324 4.09032 10.3572ZM4.87419 11.2406C4.83548 11.2728 4.85 11.3473 4.90565 11.3944C4.96129 11.4515 5.03145 11.4589 5.0629 11.4192C5.09435 11.387 5.07984 11.3125 5.03145 11.2654C4.97823 11.2083 4.90565 11.2009 4.87419 11.2406ZM4.59839 10.8758C4.55968 10.9006 4.55968 10.9651 4.59839 11.0222C4.6371 11.0793 4.70242 11.1041 4.73387 11.0793C4.77258 11.047 4.77258 10.9825 4.73387 10.9254C4.7 10.8684 4.6371 10.8435 4.59839 10.8758Z" fill="url(#paint0_linear)"/>
<defs>
<linearGradient id="paint0_linear" x1="8" y1="2" x2="8" y2="14" gradientUnits="userSpaceOnUse">
<stop stop-color="#4484F7"/>
<stop offset="1" stop-color="#BC5CF7"/>
</linearGradient>
</defs>
</svg>
